images/flag/taiwan.svg

<svg xmlns="http://www.w3.org/2000/svg" width="29" height="29" fill="none">
	<g fill-rule="evenodd" clip-path="url(#a)" clip-rule="evenodd">
		<path fill="#E94B35"
			d="M14.5009 0c8.0086 0 14.5009 6.49227 14.5009 14.5009 0 8.0086-6.4923 14.5009-14.5009 14.5009C6.49227 29.0018 0 22.5095 0 14.5009h14.5009V0Z" />
		<path fill="#005AA9" d="M14.5009 0C6.49227 0 0 6.49227 0 14.5009h14.5009V0Z" />
		<path fill="#fff"
			d="m9.31383 10.9882-.61301 2.5459-.61301-2.5459L6.284 12.8865l.74205-2.5113-2.51128.7421 1.89827-1.80384-2.54585-.61301 2.54585-.61301-1.89827-1.8038 2.51128.74204L6.284 4.51441l1.80381 1.89827.61301-2.54586.61301 2.54586 1.80377-1.89827-.742 2.51127 2.5113-.74204-1.8983 1.8038 2.5458.61301-2.5458.61301 1.8983 1.80384-2.5113-.7421.742 2.5113-1.80377-1.8983Zm-.59641.013c1.27369 0 2.30618-1.0325 2.30618-2.30618 0-1.27369-1.03249-2.30622-2.30618-2.30622-1.27368 0-2.30621 1.03253-2.30621 2.30622 0 1.27368 1.03253 2.30618 2.30621 2.30618Zm.00003-.3076c1.10386 0 1.99875-.89486 1.99875-1.99872s-.89489-1.99872-1.99875-1.99872-1.99872.89486-1.99872 1.99872.89486 1.99872 1.99872 1.99872Z" />
	</g>
	<defs>
		<clipPath id="a">
			<path fill="#fff" d="M0 0h29.0018v29.0018H0z" />
		</clipPath>
	</defs>
</svg>

<svg width="29" height="29" viewBox="0 0 29 29" fill="none" xmlns="http://www.w3.org/2000/svg">
<g clip-path="url(#clip0_1_9147)">
<path fill-rule="evenodd" clip-rule="evenodd" d="M14.5009 0C22.5095 0 29.0018 6.49227 29.0018 14.5009C29.0018 22.5095 22.5095 29.0018 14.5009 29.0018C6.49227 29.0018 0 22.5095 0 14.5009H14.5009V0Z" fill="#E94B35"/>
<path fill-rule="evenodd" clip-rule="evenodd" d="M14.5009 0C6.49227 0 0 6.49227 0 14.5009H14.5009V0Z" fill="#005AA9"/>
<path fill-rule="evenodd" clip-rule="evenodd" d="M9.31383 10.9882L8.70082 13.5341L8.08781 10.9882L6.284 12.8865L7.02605 10.3752L4.51477 11.1173L6.41304 9.31346L3.86719 8.70045L6.41304 8.08744L4.51477 6.28364L7.02605 7.02568L6.284 4.51441L8.08781 6.41268L8.70082 3.86682L9.31383 6.41268L11.1176 4.51441L10.3756 7.02568L12.8869 6.28364L10.9886 8.08744L13.5344 8.70045L10.9886 9.31346L12.8869 11.1173L10.3756 10.3752L11.1176 12.8865L9.31383 10.9882ZM8.71742 11.0012C9.99111 11.0012 11.0236 9.9687 11.0236 8.69502C11.0236 7.42133 9.99111 6.3888 8.71742 6.3888C7.44374 6.3888 6.41121 7.42133 6.41121 8.69502C6.41121 9.9687 7.44374 11.0012 8.71742 11.0012ZM8.71745 10.6936C9.82131 10.6936 10.7162 9.79874 10.7162 8.69488C10.7162 7.59102 9.82131 6.69616 8.71745 6.69616C7.61359 6.69616 6.71873 7.59102 6.71873 8.69488C6.71873 9.79874 7.61359 10.6936 8.71745 10.6936Z" fill="white"/>
</g>
<defs>
<clipPath id="clip0_1_9147">
<rect width="29.0018" height="29.0018" fill="white"/>
</clipPath>
</defs>
</svg>
